X:1
T:There Is Life for a Look
T:Edward G. Taylor
T:There Is Life for a Look
T:Public Domain
T:Public Domain
T:Public Domain
C:Edward G. Taylor
Z:Public Domain
%%score ( 1 2 ) ( 3 4 )
L:1/8
M:4/2
K:G
V:1 treble 
V:2 treble 
V:3 bass 
V:4 bass 
V:1
 ([B,G][CA]) | [DB]2 [DB][DB] [DB]2 [Ec]>[DB] | ([DB][CA])[B,G][CA] [DB]2 [GB][Ac] | %3
w: 1.~There~is *|life for a look at the|cru- * ci- fied One, There is|
w: 2.~Oh, *|why was He there as the|bear- * er of sin, If on|
w: 3.~It~is *|not th- y tears of re-|pent- * ance or prayers, But the|
w: 4.~Then *|doubt not thy wel- come, since|God * has de- clared There re-|
w: 5.~Then *|take with re- joic- ing from|Je- * sus at once Th- e|
 [Bd]2 [Bd]>[ce] (dB)[^CG][CB] | [FA]6 ([B,G][CA]) | [DB]2 [DB][DB] [DB]2 [Ec]>[DB] | %6
w: life at this mo- * ment for|Then look, *|sin- ner, look un- to Him|
w: Je- sus thy guilt * was not|Oh, why *|from His side flowed the sin-|
w: blood, that a- tones * for the|On Him, *|then, who shed it, thou may-|
w: main- eth no more * to be|That once *|in the end of the world|
w: life ev- er- last- * ing He|And know *|with as- sur- ance thou nev-|
 (BA)[DG][FA] [GB]2 [GB][Fc] | [Bd]2 [GB][DG] [CA]2 [DB]>[CA] | [B,G]6 z || %9
w: and * be saved, Un- to Him|was nailed to the tree. *||
w: cleans- * ing blood, If His dy-|thy debt has not paid? *||
w: est * at once Th- y weight|in- i- qui- ties roll. *||
w: He * ap- peared, And com- plet-|the work He be- gun. *||
w: er * canst die, Si- nce Je-|thy right- eous- ness, lives. *||
"^Refrain" [FA]2 z [GB]2 z .[G^c]2 .[Gc]2 .[Fd]2 [DG][DA] | [GB]2 [GB][GB] [GB]2 [Gc]>[GB] | %11
w: ||
w: ||
w: ||
w: ||
w: ||
 (BA)[DG][FA] [GB]2 [GB][Gc] | [Gd]2 [GB][DG] [FA]2 [FB]>[FA] | [DG]4 z |] %14
w: |||
w: |||
w: |||
w: |||
w: |||
V:2
 x2 | x8 | x8 | x4 G2 x2 | x8 | x8 | F2 x6 | x8 | x7 || x14 | x8 | F2 x6 | x8 | x5 |] %14
w: |||thee;|||who||||||||
w: |||laid?|||ing||||||||
w: |||soul;|||of||||||||
w: |||done;|||ed||||||||
w: |||gives;|||sus,||||||||
V:3
 ([G,B,][G,C]) | [G,D]2 [G,D][G,D] [G,D]2 [G,E]>[G,D] | (DC)[D,B,][D,D] [G,D]2 [G,D][A,D] | %3
w: ~ *|~ ~ ~ ~ ~ ~|~ * ~ ~ ~ ~ ~|
 [B,D]2 [B,D]>[CE] (B,G,)[E,A,]A, | [D,D]6 ([G,B,][G,C]) | [G,B,]2 [G,D][G,D] [G,D]2 [G,E]>[G,D] | %6
w: ~ ~ ~ ~ * ~ ~|~ ~ *|~ ~ ~ ~ ~ ~|
 (DC)[D,B,][D,D] [G,D]2 [G,D][A,D] | B,2 [G,D][B,,B,] [D,C]2 [D,D]>[D,C] | [G,B,]6 z || %9
w: ~ * ~ ~ ~ ~ ~|~ ~ ~ Look! look! look|live!|
 [D,D]2 z [G,D]2 z [E,A,]2 [E,A,]2 [D,A,]2 [G,B,][G,C] | [G,D]2 [G,D][G,D] [G,D]2 [G,E]>[G,D] | %11
w: There is life for a look at|the cru- ci- fied One, There|
 (DC)[D,B,][D,D] [G,D]2 [G,D][A,D] | B,2 [G,D][B,,B,] [D,C]2 [D,D]>[D,C] | [G,B,]4 z |] %14
w: is * life at this mo- ment|thee. * * * * *||
V:4
 x2 | x8 | D,2 x6 | x4 D2 A, x | x8 | x8 | D,2 x6 | B,2 x6 | x7 || x14 | x8 | D,2 x6 | B,2 x6 | %13
w: ||~|~ ~|||~|and||||for||
 x5 |] %14
w: |

